X: 411
T: Renjia honghuo zan zuonan
%%abc-version 2.0
%%abcx-abcm2ps-target-version 5.9.1 (29 Sep 2008)
%%abc-creator hum2abc beta
%%abcx-conversion-date 2013/10/02 07:52:30
%%abc-edited-by Helmut Schaffrath
%%humdrum-veritas 3177967216
%%humdrum-veritas-data 332202365
%%continueall 1
%%barnumbers 0
L: 1/8
M: 2/4
K: Bb
c'> c'c'2 [I:setbarnb 1]| 
c' f' b g | 
b> g f/ g/ f/ d/ | 
c4 | 
f> gb2 | 
b f b g | 
f d f g | 
f4 |]  



